X:154
T:Quick Step. RHu. 150
S:R.Hughes MS,1823,Whitchurch,Shrops.
A:Whitchurch, Shropshire
Z:Tony Weatherall 2006
M:6/8
L:1/8
Q:3/8=110
R:Jig
K:F
F|F2AA2c|c2f f2e|d2g g2f|ede c2F|!
F2AA2c|c2ff2e|dgf ede|g3f2:|!
|:a/b/|c’af fef|gec c2B|Acf fef|gec c2a/b/|!
c’af fef|gec c2B|Acf ede|g3f2:|

